!!!OTL: 1164. Rundgesang beim Trinken (Doentje).
!!!ODT: 1840
!!!ARE: Europa, Mitteleuropa, Deutschland, Westfalen
!!!SCT: E1164
!!!TXL: @@NDS
!!!YEM: Copyright 1995, estate of Helmut Schaffrath.
**kern	**text
*ICvox	*
*M3/4	*
*met(3)	*
*k[b-e-]	*
*g:	*
=1	=1
!LO:TX:a:t=Lebhaft.	!
!LO:TX:a:t=Aus Weſtfalen. 1840.	!
{[4dd	Jäns-
4dd]	-ken
4cc	von
=2	=2
4b-/	Bre-
4a	-men
4g	de
=3	=3
4f#	had-
4g	-de
4a	'ne
=4	=4
2d}	Kuh
{4dd	met
=5	=5
(4ee-	e-
4dd)	.
4cc	-ne
=6	=6
(<4b-	bre-
4a)	.
4dd	-den
=7	=7
(2d	Schnu-
4f#)	.
=8	=8
4g	-te.
4r}	.
{4dd	Met
=9	=9
[4dd	ee-
4dd]	.
4cc	-nen
=10	=10
4b-/	O-
4a	-ge
4g	ſah
=11	=11
4f#	oh
4g	ſe
4a	nech
=12	=12
2d}	gut,
{4dd	dat
=13	=13
(4ee-	an-
4dd)	-dre
4cc	dat
=14	=14
(<4b-	was
4a)	.
4dd	ren
=15	=15
(2d	u-
4f#)	.
=16	=16
4g	-te.
4r}	.
{4dd	Sup
=17	=17
!LO:TX:a:t=Chor.	!
(2d	u-
4f#)	.
=18	=18
4g	-te,
4r	.
4dd	rin
=19	=19
(2d	u-
4f#)	.
=20	=20
4g	-te,
4r}	.
{4dd	dann
=21	=21
4ee-	wis-
4dd	-ke
4cc	du
=22	=22
(4b-/	di-
4a)	.
4dd	-ne
=23	=23
(2d	Schnu-
4f#)	.
=24	=24
4g	-te.
4r}	.
{4dd	Sup
=25	=25
(2d	u-
4f#)	.
=26	=26
4g	-te,
4r	.
4dd	rin
=27	=27
(2d	u-
4f#)	.
=28	=28
4g	-te!
2r}	.
==	==
!!!AGN: Trink -, Zech - Lied
!!!ONB: ESAC (Essen Associative Code) Database: ERK3
!!!AMT: simple triple
!!!AIN: vox
!!!EED: Helmut Schaffrath
!!!EEV: 1.0
!!!GTL: Trink- und Zechlieder.
!!!URL-scan: https://rosdok.uni-rostock.de/mcrviewer/recordIdentifier/rosdok_ppn745177999/iview2/phys_0092.iview2?x=188.1684953369795&y=206.87506789452164&scale=0.701185927818147&rotation=0&layout=singlePageLayout
!!!ENC: Anna Maria Matuszewska
!!!EEV: 2024/12/23
*-	*-
